X:1
T:I Will Never Cease to Love Him
T:I Will Never Cease to Love Him
T:Charles Hutchinson Gabriel
T:Charles Hutchinson Gabriel, 1890
T:Public Domain Courtesy of the Cyber Hymnal™
C:Charles Hutchinson Gabriel
Z:Public Domain
Z:Courtesy of the Cyber Hymnal™
%%score ( 1 2 ) 3
L:1/8
Q:1/4=90
M:2/4
K:E
V:1 treble 
V:2 treble 
V:3 bass 
V:1
 E | [EG][EG] [EG][EA] | [EG][DF] [DF]B, | [B,F]/[B,F]/[EG] [FA][Ac] | [Ac] [GB]2 E | %5
w: 1.~For|all the Lord has|done for me, I|nev- er will cease to|love Him; And|
w: 2.~He|gives me strength for|ev- ery day, I|nev- er will cease to|love Him; He|
w: 3.~Though|all the world His|love ne- glect, I|nev- er will cease to|love Him; I|
w: 4.~While|on my jour- ney|here be- low, I|nev- er will cease to|love Him; And|
 [EG][EG] [EG][EA] | [EG][DF] [DF]B, | [B,F]/[B,F]/[FA] [EG][DF] | [B,F] [B,E]2 ||"^Refrain" [GB] | %10
w: for His grace so|rich and free, I|nev- er will cease to|love Him.||
w: leads and guides me|all the way, I|nev- er will cease to|love Him.|I|
w: could not such a|Friend re- ject, I|nev- er will cease to|love Him.||
w: when to that bright|world I go, I|nev- er will cease to|love Him.||
 [Ge]/[Ge]/[Ge] [Ge][GB] | [Ac] B2 [EG] | [EG] F2 [Ac] | [Ac] [GB]2 [GB] | %14
w: ||||
w: nev- er will cease to|love Him, My|Sav- ior, my|Sav- ior; I|
w: ||||
w: ||||
 [Ge]/[Ge]/[Ge] [Ge][GB] | [Ac] B2 [EG] | [EG]E [EG][DF] | E3 |] %18
w: ||||
w: nev- er will cease to|love Him, He’s|done so much for|me.|
w: ||||
w: ||||
V:2
 E | x4 | x3 B, | x4 | x3 E | x4 | x3 B, | x4 | x3 || x | x4 | x (G G) x | x (D D) x | x4 | x4 | %15
 x (G G) x | x E x2 | E3 |] %18
V:3
 [E,G,] | [E,B,][E,B,] [E,B,][E,C] | [B,,B,][B,,A,] [B,,A,][B,,A,] | %3
 [B,,A,]/[B,,A,]/[B,,B,] [B,,D][B,,D] | [E,E] [E,E]2 [E,G,] | [E,B,][E,B,] [E,B,][E,C] | %6
 [B,,B,][B,,A,] [B,,A,][B,,A,] | [B,,A,]/[B,,A,]/[B,,B,] [B,,B,][B,,A,] | [E,A,] [E,G,]2 || [E,E] | %10
 [E,B,]/[E,B,]/[E,B,] [E,B,][E,E] | [E,E] ([E,E] [E,E])[E,B,] | [B,,B,] ([B,,B,] [B,,B,])[B,,D] | %13
 [E,E] [E,E]2 [E,E] | [E,B,]/[E,B,]/[E,B,] [E,B,][E,E] | [E,E] ([E,E] [E,E])[E,B,] | %16
 [B,,B,][B,,G,] [B,,B,][B,,A,] | [E,G,]3 |] %18

